minus-circle-multiple-outline.svg

<svg fill="currentColor" viewBox="0 0 24 24"><path d="M11 11v2h8v-2zm-9 1c0-2.79 1.64-5.2 4-6.32V3.5C2.5 4.76 0 8.09 0 12s2.5 7.24 6 8.5v-2.18C3.64 17.2 2 14.79 2 12m13-9c-4.96 0-9 4.04-9 9s4.04 9 9 9 9-4.04 9-9-4.04-9-9-9m0 16c-3.86 0-7-3.14-7-7s3.14-7 7-7 7 3.14 7 7-3.14 7-7 7"/></svg>

<svg  viewBox="0 0 24 24" fill="currentColor"><path  d="M11 11V13H19V11H11M2 12C2 9.21 3.64 6.8 6 5.68V3.5C2.5 4.76 0 8.09 0 12S2.5 19.24 6 20.5V18.32C3.64 17.2 2 14.79 2 12M15 3C10.04 3 6 7.04 6 12S10.04 21 15 21 24 16.96 24 12 19.96 3 15 3M15 19C11.14 19 8 15.86 8 12S11.14 5 15 5 22 8.14 22 12 18.86 19 15 19Z"/></svg>
